assets/icons/section_hashtag.svg

<?xml version="1.0" encoding="UTF-8"?>
<!-- Created with Inkscape (http://www.inkscape.org/) -->
<svg width="120" height="120" version="1.1" viewBox="0 0 120 120" xmlns="http://www.w3.org/2000/svg">
 <g transform="matrix(3.0303 0 0 3.0303 -20.303 -1641.5)" data-name="Grupo 2080">
  <circle transform="translate(10,545)" cx="16.5" cy="16.5" r="16.5" fill="#f1f1f1" data-name="Elipse 140"/>
  <path id="Icon_awesome-hashtag" transform="translate(19.686 552.44)" d="m13.4 6.816 0.222-1.216a0.365 0.365 0 0 0-0.359-0.429h-2.276l0.445-2.491a0.365 0.365 0 0 0-0.359-0.429h-1.237a0.365 0.365 0 0 0-0.359 0.3l-0.468 2.619h-3l0.445-2.491a0.365 0.365 0 0 0-0.359-0.429h-1.237a0.365 0.365 0 0 0-0.359 0.3l-0.468 2.62h-2.406a0.365 0.365 0 0 0-0.359 0.3l-0.217 1.218a0.365 0.365 0 0 0 0.359 0.429h2.276l-0.7 3.894h-2.402a0.365 0.365 0 0 0-0.359 0.3l-0.217 1.217a0.365 0.365 0 0 0 0.359 0.429h2.276l-0.441 2.492a0.365 0.365 0 0 0 0.359 0.429h1.232a0.365 0.365 0 0 0 0.359-0.3l0.468-2.619h3l-0.445 2.491a0.365 0.365 0 0 0 0.359 0.429h1.237a0.365 0.365 0 0 0 0.359-0.3l0.472-2.621h2.4a0.365 0.365 0 0 0 0.359-0.3l0.217-1.217a0.365 0.365 0 0 0-0.359-0.429h-2.273l0.7-3.894h2.406a0.365 0.365 0 0 0 0.359-0.3zm-5.434 4.195h-3l0.7-3.894h3z" fill="#222423" data-name="Icon awesome-hashtag"/>
 </g>
</svg>

<svg xmlns="http://www.w3.org/2000/svg" width="33" height="33" viewBox="0 0 33 33">
  <g id="Grupo_2080" data-name="Grupo 2080" transform="translate(-10 -545)">
    <circle id="Elipse_140" data-name="Elipse 140" cx="16.5" cy="16.5" r="16.5" transform="translate(10 545)" fill="#f1f1f1"/>
    <path id="Icon_awesome-hashtag" data-name="Icon awesome-hashtag" d="M13.4,6.816,13.622,5.6a.365.365,0,0,0-.359-.429H10.987l.445-2.491a.365.365,0,0,0-.359-.429H9.836a.365.365,0,0,0-.359.3L9.009,5.17h-3l.445-2.491a.365.365,0,0,0-.359-.429H4.858a.365.365,0,0,0-.359.3L4.031,5.17H1.625a.365.365,0,0,0-.359.3L1.049,6.688a.365.365,0,0,0,.359.429H3.684l-.7,3.894H.582a.365.365,0,0,0-.359.3L.006,12.528a.365.365,0,0,0,.359.429H2.641L2.2,15.449a.365.365,0,0,0,.359.429H3.791a.365.365,0,0,0,.359-.3l.468-2.619h3l-.445,2.491a.365.365,0,0,0,.359.429H8.769a.365.365,0,0,0,.359-.3L9.6,12.958H12a.365.365,0,0,0,.359-.3l.217-1.217a.365.365,0,0,0-.359-.429H9.944l.7-3.894h2.406a.365.365,0,0,0,.359-.3ZM7.966,11.011h-3l.7-3.894h3Z" transform="translate(19.686 552.436)" fill="#222423"/>
  </g>
</svg>
